build/img/sprites/Certificate.svg

<svg width="54" height="54" viewBox="0 0 54 54" fill="none" xmlns="http://www.w3.org/2000/svg">
<path d="M27 28.6875C27 29.1351 26.8222 29.5643 26.5057 29.8807C26.1893 30.1972 25.7601 30.375 25.3125 30.375H15.1875C14.7399 30.375 14.3107 30.1972 13.9943 29.8807C13.6778 29.5643 13.5 29.1351 13.5 28.6875C13.5 28.2399 13.6778 27.8107 13.9943 27.4943C14.3107 27.1778 14.7399 27 15.1875 27H25.3125C25.7601 27 26.1893 27.1778 26.5057 27.4943C26.8222 27.8107 27 28.2399 27 28.6875ZM25.3125 20.25H15.1875C14.7399 20.25 14.3107 20.4278 13.9943 20.7443C13.6778 21.0607 13.5 21.4899 13.5 21.9375C13.5 22.3851 13.6778 22.8143 13.9943 23.1307C14.3107 23.4472 14.7399 23.625 15.1875 23.625H25.3125C25.7601 23.625 26.1893 23.4472 26.5057 23.1307C26.8222 22.8143 27 22.3851 27 21.9375C27 21.4899 26.8222 21.0607 26.5057 20.7443C26.1893 20.4278 25.7601 20.25 25.3125 20.25ZM48.9375 34.0601V47.25C48.9402 47.5475 48.8642 47.8404 48.7171 48.0991C48.5701 48.3577 48.3573 48.5729 48.1003 48.7228C47.8434 48.8727 47.5513 48.952 47.2538 48.9527C46.9563 48.9533 46.6639 48.8753 46.4062 48.7266L41.3437 45.8283L36.2812 48.7266C36.0236 48.8753 35.7312 48.9533 35.4337 48.9527C35.1362 48.952 34.8441 48.8727 34.5871 48.7228C34.3302 48.5729 34.1174 48.3577 33.9704 48.0991C33.8233 47.8404 33.7473 47.5475 33.75 47.25V42.1875H8.4375C7.54239 42.1875 6.68395 41.8319 6.05101 41.199C5.41808 40.566 5.0625 39.7076 5.0625 38.8125V11.8125C5.0625 10.9174 5.41808 10.0589 6.05101 9.42601C6.68395 8.79308 7.54239 8.4375 8.4375 8.4375H45.5625C46.4576 8.4375 47.316 8.79308 47.949 9.42601C48.5819 10.0589 48.9375 10.9174 48.9375 11.8125V18.2524C50.0042 19.274 50.8532 20.5009 51.4331 21.8592C52.0131 23.2176 52.312 24.6793 52.312 26.1562C52.312 27.6332 52.0131 29.0949 51.4331 30.4533C50.8532 31.8116 50.0042 33.0385 48.9375 34.0601ZM33.75 38.8125V34.0601C31.9111 32.2866 30.7489 29.9268 30.464 27.3879C30.1791 24.8491 30.7894 22.2904 32.1895 20.1535C33.5897 18.0165 35.6918 16.4353 38.1332 15.6827C40.5747 14.9302 43.2022 15.0534 45.5625 16.0312V11.8125H8.4375V38.8125H33.75ZM45.5625 36.2812C44.2261 36.8396 42.7921 37.1271 41.3437 37.1271C39.8954 37.1271 38.4614 36.8396 37.125 36.2812V44.3433L40.5 42.4111C40.755 42.2653 41.0437 42.1886 41.3374 42.1886C41.6312 42.1886 41.9198 42.2653 42.1748 42.4111L45.5498 44.3433L45.5625 36.2812ZM48.9375 26.1562C48.9375 24.6543 48.4921 23.1862 47.6577 21.9374C46.8233 20.6886 45.6373 19.7153 44.2497 19.1405C42.8622 18.5658 41.3353 18.4154 39.8623 18.7084C38.3892 19.0014 37.0362 19.7247 35.9742 20.7867C34.9122 21.8487 34.1889 23.2017 33.8959 24.6748C33.6029 26.1478 33.7533 27.6747 34.328 29.0623C34.9028 30.4498 35.8761 31.6358 37.1249 32.4702C38.3737 33.3046 39.8418 33.75 41.3437 33.75C42.341 33.75 43.3284 33.5536 44.2497 33.172C45.1711 32.7903 46.0082 32.231 46.7133 31.5258C47.4185 30.8207 47.9778 29.9836 48.3595 29.0623C48.7411 28.1409 48.9375 27.1535 48.9375 26.1562Z" fill="#78213A"/>
</svg>

<svg width="54" height="54" viewBox="0 0 54 54" fill="none" xmlns="http://www.w3.org/2000/svg"><path d="M27 28.688a1.687 1.687 0 01-1.688 1.687H15.188a1.687 1.687 0 110-3.375h10.126A1.687 1.687 0 0127 28.688zm-1.688-8.438H15.188a1.687 1.687 0 100 3.375h10.126a1.687 1.687 0 100-3.375zm23.625 13.81v13.19a1.687 1.687 0 01-2.53 1.477l-5.063-2.899-5.063 2.899a1.688 1.688 0 01-2.531-1.477v-5.063H8.437a3.375 3.375 0 01-3.374-3.374v-27a3.375 3.375 0 013.375-3.376h37.124a3.375 3.375 0 013.376 3.376v6.44a10.945 10.945 0 010 15.807zM33.75 38.812V34.06a10.969 10.969 0 0111.813-18.029v-4.218H8.437v27H33.75zm11.813-2.53a10.943 10.943 0 01-8.438 0v8.061l3.375-1.932a1.687 1.687 0 011.675 0l3.375 1.932.013-8.062zm3.374-10.126a7.594 7.594 0 10-15.187 0 7.594 7.594 0 0015.188 0z" fill="#78213A"/></svg>
